invoice-text-edit.svg

<svg fill="currentColor" viewBox="0 0 24 24"><path d="M9.86 21.43 9 22l-3-2-3 2V3h18v7.2c-.9-.38-2-.2-2.76.55l-8.38 8.38zM17 7H7v2h10zm-2 4H7v2h8zm-3.14 8.96V22h2.04l6.13-6.13L18 13.83zm9.85-6.49-1.32-1.32a.24.24 0 0 0-.08-.06.5.5 0 0 0-.62.04l-.02.02-.98.98 2.04 2.04.98-.98c.2-.19.2-.52 0-.72"/></svg>

<svg  viewBox="0 0 24 24" fill="currentColor"><path  d="M9.86 21.43L9 22L6 20L3 22V3H21V10.2C20.1 9.82 19 10 18.24 10.75L9.86 19.13V21.43M17 7H7V9H17V7M15 11H7V13H15V11M11.86 19.96V22H13.9L20.03 15.87L18 13.83L11.86 19.96M21.71 13.47L20.39 12.15C20.37 12.13 20.34 12.1 20.31 12.09C20.12 11.96 19.86 11.97 19.69 12.13L19.67 12.15L18.69 13.13L20.73 15.17L21.71 14.19C21.91 14 21.91 13.67 21.71 13.47Z"/></svg>
